X: 1
T: Fiddle 'Til Dawn
C: Mike Richardson
N: Seattle, Washington
B: "Gems - The Best of the Country Dance and Song Society", CDSS, 1993, p.67
Z: 2011 John Chambers <jc:trillian.mit.edu>
R: reel
M: C|
L: 1/8
K: G
|:\
"G"G2BG "C"EFGE | "G"DFAc "C"BAGF | "G"GABc "Em"dBed | "Am"cBAG "D"FADF |
"G"G2BG "C"EFGE | "G"DFAc "C"BAGF | "G"GABc "C"dBec |1 "D"AEFD "G"G3F :|2 "D"AEFD "G"GDEF ||
|:\
"G"GABc "Dm"dBed | "C"cAdc "G"BGcB | "B7"AFBA "Em"GEAG | "A"FGEF "D"DCB,A, |
"G"G,A,B,C DG,A,B, | "C"CDEF GABc | "G"dBed "C"cBAG | "D"FDEF | "G"HG3 F :|
